!!!!SEGMENT: pl-sa--l-1643--023_anonim--non-vos-relinquam-orphanos.krn
!!!cenid: 16xx:1378
!!!COM: Anonim
!!!COM-rismid: pe30004985
!!!CDT:
!!!CNT:
!!!OTL: Non vos relinquam orphanos
!!!PDT:
!!!AGN: Sacred
!!!SMS-siglum: PL-SA
!!!SMS-shelfmark: L 1643
!!!SMS-shelfwork: 023 W
!!!SMS-variant:
!!!SMS-altvar:
!!!NIFC-rismid: 1001064626
!!!URL-scan: http://repozytorium.nifc.pl/skany/pl-sa-nut--l1643
!!!ONB-nifc: UWAGA: 8 ksiąg. Primi chori: 1mus Cantus (x), C 2dus (46), C 3tius (34), Bassus (89-90); Secondi chori: Primus Cantus (x), C 2dus (x), Altus (x), Bassus (102). UWAGA: metrum 2/2 i 3/2. Nie dodawać pustych linii, chyba że w rękopisie pojawiają się dodatkowe oznaczenia dotyczące pełnej obsady (a 4, a 8 itp.)
!!!AIN: 4 empty
!!!key:
**kern	**text	**kern	**text	**kern	**text	**kern	**text
*group1	*	*group1	*	*group1	*	*group1	*
*part4	*part4	*part3	*part3	*part2	*part2	*part1	*part1
*staff4	*staff4	*staff3	*staff3	*staff2	*staff2	*staff1	*staff1
*Iempty	*	*Iempty	*	*Iempty	*	*Iempty	*
*I"Baſsus 2di Chori	*	*I"Bassus Primi Chori.	*	*I"Cantus 3tius Primi Chori	*	*I"Cantus 2dus Primi Chori.	*
*I'II Coro B	*	*I'I Coro B	*	*I'I Coro S 3	*	*I'I Coro S 2	*
*clefC3	*	*clefC3	*	*clefC2	*	*clefC1	*
*k[]	*	*k[]	*	*k[]	*	*k[]	*
*c:	*	*c:	*	*c:	*	*c:	*
*M2/2	*	*M2/2	*	*M2/2	*	*M2/2	*
*met(C|)	*	*met(C|)	*	*met(C|)	*	*met(C|)	*
=1-	=1-	=1-	=1-	=1-	=1-	=1-	=1-
!LO:TX:b:t=Non vos relin\nquam orphanos	!	!	!	!LO:TX:b:t=Non\nvos	!	!	!
!	!	!	!	!	!	!LO:TX:b:t=Non vos relin\nquam orphanos	!
00r	.	00r	.	00r	.	00r	.
=2-	=2-	=2-	=2-	=2-	=2-	=2-	=2-
*M3/2	*	*M3/2	*	*M3/2	*	*M3/2	*
2r	.	2r	.	2r	.	2r	.
2c/	Al-	2c/	Al-	2g\	Al-	2cc\	Al-
2c/	-le-	2c/	-le-	2g\	-le-	2cc\	-le-
=3-	=3-	=3-	=3-	=3-	=3-	=3-	=3-
1g	-lu-	1G	-lu-	1g	-lu-	1b	-lu-
2c,>/	-ia	2c/	-ia	2g\	-ia	2cc\	-ia
=4-	=4-	=4-	=4-	=4-	=4-	=4-	=4-
2F/	Al-	2f\	Al-	2a\	al-	2a\	al-
2c/	-le-	2c/	-le-	2g\	-le-	2cc\	-le-
2g\	-lu-	2G/	-lu-	2g\	-lu-	2b\	-lu-
=5-	=5-	=5-	=5-	=5-	=5-	=5-	=5-
*M2/2	*	*M2/2	*	*M2/2	*	*M2/2	*
*met(C|)	*	*met(C|)	*	*met(C|)	*	*met(C|)	*
1c,>	-ia	1c	-ia	1g	-ia	1cc	-ia
=6-	=6-	=6-	=6-	=6-	=6-	=6-	=6-
00r	.	00r	.	00r	.	00r	.
=7-	=7-	=7-	=7-	=7-	=7-	=7-	=7-
1r	.	1r	.	1r	.	1r	.
!	!	!LO:PB:g=original	!	!	!	!	!
=8-	=8-	=8-	=8-	=8-	=8-	=8-	=8-
*M3/2	*	*M3/2	*	*M3/2	*	*M3/2	*
2r	.	2r	.	2r	.	2r	.
2c/	Al-	2c/	Al-	2g\	Al-	2cc\	Al-
2f\	-le-	2F/	-le-	2a\	-le-	2cc\	-le-
=9-	=9-	=9-	=9-	=9-	=9-	=9-	=9-
1c	-lu-	1c	-lu-	1g	-lu-	1cc	-lu-
2c,>/	-ia	2c/	-ia	2g\	-ia	2cc\	-ia
=10-	=10-	=10-	=10-	=10-	=10-	=10-	=10-
2F/	Al-	2f\	Al-	2a\	al-	2cc\	Al-
2c/	-le-	2c/	-le-	2g\	-le-	2cc\	-le-
2g\	-lu-	2G/	-lu-	2g\	-lu-	2b\	-lu-
=11-	=11-	=11-	=11-	=11-	=11-	=11-	=11-
*M2/2	*	*M2/2	*	*M2/2	*	*M2/2	*
*met(C|)	*	*met(C|)	*	*met(C|)	*	*met(C|)	*
1c	-ia	1c	-ia	1g	-ia	1cc	-ia
*	*	*	*	*	*	*custos:b	*
!	!	!	!	!	!	!LO:LB:g=original	!
=12-	=12-	=12-	=12-	=12-	=12-	=12-	=12-
00r	.	00r	.	00r	.	00r	.
=13-	=13-	=13-	=13-	=13-	=13-	=13-	=13-
0r	.	00r	.	00r	.	00r	.
=14-	=14-	=14-	=14-	=14-	=14-	=14-	=14-
2B/	et	.	.	.	.	.	.
*custos:c	*	*	*	*	*	*	*
!LO:LB:g=original	!	!	!	!	!	!	!
2c/	gau-	.	.	.	.	.	.
=15-	=15-	=15-	=15-	=15-	=15-	=15-	=15-
2d\	-de-	.	.	.	.	.	.
4c\	-bit	.	.	.	.	.	.
4A/	cor	.	.	.	.	.	.
=16-	=16-	=16-	=16-	=16-	=16-	=16-	=16-
1G	ve-	1r	.	1r	.	0r	.
=17-	=17-	=17-	=17-	=17-	=17-	=17-	=17-
2c/	-ſtrum	2e\	et	2g\	et	.	.
2r	.	2f\	gau-	2a\	gau-	.	.
=18-	=18-	=18-	=18-	=18-	=18-	=18-	=18-
!	!	!	!	!LO:TX:t=P:problem=kropka w kolejnym systemie	!	!	!
00r	.	2.g\	-de-	2.b\	-de-	2b\	et
.	.	.	.	.	.	2cc\	gau-
*	*	*	*	*custos:a	*	*	*
!	!	!	!	!LO:LB:g=original	!	!	!
.	.	4f\	-bit	4a\	-bit	.	.
=19-	=19-	=19-	=19-	=19-	=19-	=19-	=19-
.	.	2e\	cor	2g\	cor	2cc\	-de-
.	.	2d\	ve-	2d/	ve-	2dd\	-bit
=20-	=20-	=20-	=20-	=20-	=20-	=20-	=20-
.	.	2c/	-ſtrum	2g,>\	-ſtru(m)	2.ee\	cor
.	.	2c/	.	2g\	cor	.	.
.	.	.	.	.	.	8dd\L	.
.	.	.	.	.	.	8cc\J	.
=21-	=21-	=21-	=21-	=21-	=21-	=21-	=21-
.	.	1G	.	1g	ve-	1b	ve-
=22-	=22-	=22-	=22-	=22-	=22-	=22-	=22-
*M3/2	*	*M3/2	*	*M3/2	*	*M3/2	*
!	!	!LO:TX:t=P:problem=partia urywa się po półnucie	!	!	!	!	!
2r	.	2c/	.	2g,>\	-ſtru(m)	2cc,>\	-ſtrum,
!	!	!LO:LB:g=original	!	!	!	!	!
2g\	Al-	2ryy	.	2g\	Al-	2dd\	Al-
2g\	-le-	2ryy	.	2g\	-le-	2b\	-le-
=23-	=23-	=23-	=23-	=23-	=23-	=23-	=23-
1d	-lu-	1.ryy	.	1a	-lu-	1dd	-lu-
2g,>\	-ia.	.	.	2g,>\	-ia	2dd\	-ia,
=24-	=24-	=24-	=24-	=24-	=24-	=24-	=24-
2c/	Al-	1.ryy	.	2g\	al-	2cc\	Al-
2c/	-le-	.	.	2g\	-le-	2cc\	-le-
2g\	-lu-	.	.	2g\	-lu-	2b\	-lu-
=25-	=25-	=25-	=25-	=25-	=25-	=25-	=25-
*M2/2	*	*	*	*M2/2	*	*M2/2	*
*met(C|)	*	*	*	*met(C|)	*	*met(C|)	*
1c	-ia,	1ryy	.	1g	-ia	1cc	-ia,
=26-	=26-	=26-	=26-	=26-	=26-	=26-	=26-
00r	.	00ryy	.	00r	.	00r	.
=27-	=27-	=27-	=27-	=27-	=27-	=27-	=27-
2r	.	00ryy	.	00r	.	00r	.
2c/	Lau-	.	.	.	.	.	.
=28-	=28-	=28-	=28-	=28-	=28-	=28-	=28-
2c/	-de-	.	.	.	.	.	.
2c/	-tur	.	.	.	.	.	.
=29-	=29-	=29-	=29-	=29-	=29-	=29-	=29-
2G/	San-	.	.	.	.	.	.
2c/	-cta	.	.	.	.	.	.
=30-	=30-	=30-	=30-	=30-	=30-	=30-	=30-
!LO:TX:t=P:problem=kropka w kolejnym systemie	!	!	!	!	!	!	!
2.F/	trÿ-	.	.	.	.	.	.
*custos:F	*	*	*	*	*	*	*
!LO:LB:g=original	!	!	!	!	!	!	!
4F/	-ni-	.	.	.	.	.	.
=31-	=31-	=31-	=31-	=31-	=31-	=31-	=31-
*M3/2	*	*	*	*M3/2	*	*M3/2	*
1c,>	-taſ	1.ryy	.	2r	.	2r	.
.	.	.	.	2r	.	2r	.
2g\	Al-	.	.	2g\	Al-	2dd\	Al-
=32-	=32-	=32-	=32-	=32-	=32-	=32-	=32-
1d	-le-	1.ryy	.	1a	-le-	1dd	-le-
*	*	*	*	*	*	*custos:dd	*
!	!	!	!	!	!	!LO:LB:g=original	!
2g\	-lu-	.	.	2g\	-lu-	2dd\	-lu-
=33-	=33-	=33-	=33-	=33-	=33-	=33-	=33-
*M2/2	*	*	*	*M2/2	*	*M2/2	*
*met(C|)	*	*	*	*met(C|)	*	*met(C|)	*
1c	-ia,	1ryy	.	1g	-ia	1cc	-ia,
=34-	=34-	=34-	=34-	=34-	=34-	=34-	=34-
*M3/2	*	*	*	*M3/2	*	*M3/2	*
0.r	.	0.ryy	.	0.r	.	0.r	.
*	*	*	*	*custos:g	*	*	*
!	!	!	!	!LO:LB:g=original	!	!	!
=35-	=35-	=35-	=35-	=35-	=35-	=35-	=35-
2c/	De-	1.ryy	.	2g\	De-	2ee\	De-
2c/	-o	.	.	2g\	-o	2ee\	-o
2G/	dy-	.	.	2g\	di-	2dd\	di-
=36-	=36-	=36-	=36-	=36-	=36-	=36-	=36-
1c	-ka-	1.ryy	.	1g	-ca-	1cc	-ca-
2c/	-muſ	.	.	2g\	-mus	2cc\	-muſ,
=37-	=37-	=37-	=37-	=37-	=37-	=37-	=37-
0.r	.	0.ryy	.	0.r	.	0.r	.
=38-	=38-	=38-	=38-	=38-	=38-	=38-	=38-
2c/	De-	1.ryy	.	2g\	De-	2cc\	De-
2c/	-o	.	.	2g\	-o	2cc\	-o
2f\	dy-	.	.	2a\	di-	2cc\	di-
=39-	=39-	=39-	=39-	=39-	=39-	=39-	=39-
1c	-ka-	1.ryy	.	1g	-ca-	1cc	-ca-
2c/	-muſ	.	.	2g\	-mus	2cc\	-muſ,
=40-	=40-	=40-	=40-	=40-	=40-	=40-	=40-
0.r	.	0.ryy	.	0.r	.	0.r	.
=41-	=41-	=41-	=41-	=41-	=41-	=41-	=41-
1.r	.	1.ryy	.	1.r	.	1.r	.
=42-	=42-	=42-	=42-	=42-	=42-	=42-	=42-
2c/	De-	1.ryy	.	2g\	De-	2cc\	De-
2c/	-o	.	.	2g\	-o	2cc\	-o
2f\	dÿ-	.	.	2a\	di-	2cc\	di-
=43-	=43-	=43-	=43-	=43-	=43-	=43-	=43-
1c	-ca-	1.ryy	.	1g	-ca-	1cc	-ca-
2c/	-muſ	.	.	2g\	-mus	2cc\	-muſ
*custos:F	*	*	*	*	*	*	*
!LO:LB:g=original	!	!	!	!	!	!	!
=44-	=44-	=44-	=44-	=44-	=44-	=44-	=44-
1F	gra-	1.ryy	.	1a	gra-	1cc	gra-
2F/	-ti-	.	.	2a\	-ti-	2cc\	-ci-
=45-	=45-	=45-	=45-	=45-	=45-	=45-	=45-
1c	-aſ,	1.ryy	.	1g,>	-as	1cc	-as
2c/	Al-	.	.	2g\	Al-	2cc\	Al-
*	*	*	*	*	*	*custos:b	*
!	!	!	!	!	!	!LO:LB:g=original	!
=46-	=46-	=46-	=46-	=46-	=46-	=46-	=46-
1g	-le-	1.ryy	.	1g	-le-	1b	-le-
2g\	-lu-	.	.	2g\	-lu-	2b\	-lu-
=47-	=47-	=47-	=47-	=47-	=47-	=47-	=47-
!	!	!	!	!	!	!LO:TX:t=P:problem=doklejony fragment pustej pięciolinii	!
1c	-ia,	1.ryy	.	1g,>	-ia	1cc	-ia,
2c/	Al-	.	.	2g\	al-	2cc\	al-
*	*	*	*	*custos:g	*	*	*
!	!	!	!	!LO:LB:g=original	!	!	!
=48-	=48-	=48-	=48-	=48-	=48-	=48-	=48-
1G	-le-	1.ryy	.	1g	-le-	1dd	-le-
2G/	-lu-	.	.	2g\	-lu-	2dd\	-lu-
=49-	=49-	=49-	=49-	=49-	=49-	=49-	=49-
*M2/2	*	*	*	*M2/2	*	*M2/2	*
*met(C|)	*	*	*	*met(C|)	*	*met(C|)	*
2c,/	-ia,	1ryy	.	2g\	-ia,	2cc\	-ia,
2c/	Al-	.	.	2g\	al-	2cc\	al-
=50-	=50-	=50-	=50-	=50-	=50-	=50-	=50-
1.g	-le-	1ryy	.	1.g	-le-	1.dd	-le-
=51-	=51-	=51-	=51-	=51-	=51-	=51-	=51-
.	.	1ryy	.	.	.	.	.
2g\	-lu-	.	.	2g\	-lu-	2dd\	-lu-
=52-	=52-	=52-	=52-	=52-	=52-	=52-	=52-
0c;;	-ia,	0ryy	.	0g;;	-ia,	0cc;;	-ia,
=-	=-	=-	=-	=-	=-	=-	=-
*-	*-	*-	*-	*-	*-	*-	*-
!!!system-decoration: [(s1,s2,s3)][(s4)]
!!!ENC: Andrzej Kubiczek
!!!END: 2021-10-02
!!!EED: Jędrzej Mróz
!!!ESR: 2021-10-08
!!!RDF**kern: > = above
!!!RDF**kern: < = below
